X: 1
T: The Silver Spire
M: C|
L: 1/8
R: reel
K: Dmaj
|"D"D2FE DEFA|dcde fdAF|"G"G2BG "D"F2AF|"Em"EFGE "A"DCB,A,|
"D"D2FE DEFA|dcde fdAF|"G"G2BG "D"FEDF|"A"EDCE "D"D4:|
|:"A"A,B,CD EFGE|"D"FDEF GABc|"G"dBBA "Bm/F#"Bcde|"Em"f2gf "A"e3c|
"D"d2fd "A"c2ec|"G"BcdB "D"AFDF|"G"G2BG "D"FEDF|"A"EDCE "D"D4:|

